X:1
T:I'm Sorry I Made You Cry
T:I'm Sorry I Made You Cry
C:N. J. Clesi
Z:All Rights Reserved
L:1/8
M:3/4
K:Bb
V:1 treble nm="Piano" snm="Pno."
%%MIDI program 0
V:1
|:"Bb" d2 B3 F |"G7" D6 |"C7" c2 G3 =E | C6 |"F7" A2 G3 F | A2 G3 F |"Bb" D6- | D4 z2 | D2 E3 =E | %9
w: I'm sor- ry,|dear,|so sor- ry,|dear,|I'm sor- ry|I made you|cry!|_|Won't you for-|
 F6 | F2"Gm" G3"D7" A |"Gm" B6 |"C7" B2 A3 B | c4 G2 |"Cm7" c6- |"F7" c4 z2 |"Bb" d2 B3 F | %17
w: get,|won't you for|give?|Don't let us|say good-|bye!|_|One lit- tle|
"G7" D6 |"C7" c2 G3 =E | C6 |"F7" A2 G3 F | A2"Cm7" B2"Cm6" c2 |"D7" d6- | d4 z2 | %24
w: word,|one lit- tle|smile,|One lit- tle|kiss won't you|try?|_|
"Eb" G2"Ebdim" ^F3 G | A4"G7" =B2 |"Cm" c4"G7" d2 |"Cm" e6 |"C7" d2 c2 B2 |"F7" G2 A3 F |1 %30
w: It breaks my|heart to|hear you|sigh,|I'm sor- ry|I made you|
"Bb" B6 ||"F7""Eb""F7" z6 :|2"Bb" B6- || B4 z2 |] %34
w: cry!||cry!|_|

